frontend/src/assets/icons/send-03.svg

<svg width="24" height="24" viewBox="0 0 24 24" fill="none" xmlns="http://www.w3.org/2000/svg">
<g id="send-03">
<path id="Icon" d="M10.5004 12H5.00043M4.91577 12.2915L2.58085 19.2662C2.39742 19.8142 2.3057 20.0881 2.37152 20.2569C2.42868 20.4034 2.55144 20.5145 2.70292 20.5567C2.87736 20.6054 3.14083 20.4869 3.66776 20.2497L20.3792 12.7296C20.8936 12.4981 21.1507 12.3824 21.2302 12.2216C21.2993 12.082 21.2993 11.9181 21.2302 11.7784C21.1507 11.6177 20.8936 11.5019 20.3792 11.2705L3.66193 3.74776C3.13659 3.51135 2.87392 3.39315 2.69966 3.44164C2.54832 3.48375 2.42556 3.59454 2.36821 3.74078C2.30216 3.90917 2.3929 4.18255 2.57437 4.72931L4.91642 11.7856C4.94759 11.8795 4.96317 11.9264 4.96933 11.9744C4.97479 12.0171 4.97473 12.0602 4.96916 12.1028C4.96289 12.1508 4.94718 12.1977 4.91577 12.2915Z" stroke="black" stroke-width="2" stroke-linecap="round" stroke-linejoin="round"/>
</g>
</svg>

<svg xmlns="http://www.w3.org/2000/svg" width="24" height="24" fill="none" viewBox="0 0 24 24">
  <path stroke="#000" stroke-linecap="round" stroke-linejoin="round" stroke-width="2" d="M10.5 12H5m-.084.291L2.58 19.267c-.184.548-.275.822-.21.99a.5.5 0 0 0 .332.3c.174.05.438-.07.965-.306l16.711-7.52c.515-.232.772-.348.851-.508a.5.5 0 0 0 0-.444c-.08-.16-.336-.276-.85-.508L3.661 3.748c-.525-.237-.788-.355-.962-.306a.5.5 0 0 0-.332.299c-.066.168.025.442.206.988l2.342 7.057c.032.094.047.14.053.188a.5.5 0 0 1 0 .129c-.006.048-.022.095-.053.188Z"/>
</svg>
